X: 3729
T: Bingo's
R: reel
M: 4/4
K: Dmajor
fdBd A2 dA|BAFD EFGB|A F3 DFBF|Ad (3fga g2 fe|
[1 d3d dBAG|F3A GFFG|FAdf ecdB|a3g fdde:|
[2 edce dBAG|F3A GFFG|FAdf ecdB|Aceg fdde||
f3 g a3f|g2ed cAAG|FAdf gaba|agfg e3 z|
a3 a afdf|gfed cAAG|FAdf ecdB|Aceg fdde|
fa2b afdf|g2ed cAAG|FAdf gaba|agfg e3 z|
a3 d' afdf|gfed cAAG|FAdf ecdB|ABcd egfe||

